X:526
T: ALLES WAS ODEM HAT
N: F1010
O: Europa, Mitteleuropa, Deutschland
R: Erbauungs - Lied, religioes, Lob
M: 3/4
L: 1/8
K: A
 | A2A2A2 | e3dc2 |
B2A2B2 | c6 |
c2c2c2 | d3dd2 |
e2e2e2 | f4d2 |
e4e2 | e3dc2 |
B4B2 | c6

@@@ Tune index: 5957
